ix/personalcard_outline.svg

<svg viewBox="0 0 24 24" fill="none" xmlns="http://www.w3.org/2000/svg" height="1em" width="1em">
  <path d="M17 21.75H7C2.59 21.75 1.25 20.41 1.25 16V8C1.25 3.59 2.59 2.25 7 2.25H17C21.41 2.25 22.75 3.59 22.75 8V16C22.75 20.41 21.41 21.75 17 21.75ZM7 3.75C3.42 3.75 2.75 4.43 2.75 8V16C2.75 19.57 3.42 20.25 7 20.25H17C20.58 20.25 21.25 19.57 21.25 16V8C21.25 4.43 20.58 3.75 17 3.75H7Z" fill="#292D32"/>
  <path d="M19 8.75H14C13.59 8.75 13.25 8.41 13.25 8C13.25 7.59 13.59 7.25 14 7.25H19C19.41 7.25 19.75 7.59 19.75 8C19.75 8.41 19.41 8.75 19 8.75Z" fill="#292D32"/>
  <path d="M19 12.75H15C14.59 12.75 14.25 12.41 14.25 12C14.25 11.59 14.59 11.25 15 11.25H19C19.41 11.25 19.75 11.59 19.75 12C19.75 12.41 19.41 12.75 19 12.75Z" fill="#292D32"/>
  <path d="M19 16.75H17C16.59 16.75 16.25 16.41 16.25 16C16.25 15.59 16.59 15.25 17 15.25H19C19.41 15.25 19.75 15.59 19.75 16C19.75 16.41 19.41 16.75 19 16.75Z" fill="#292D32"/>
  <path d="M8.50043 12.0399C7.09043 12.0399 5.94043 10.8899 5.94043 9.47992C5.94043 8.06992 7.09043 6.91992 8.50043 6.91992C9.91043 6.91992 11.0604 8.06992 11.0604 9.47992C11.0604 10.8899 9.91043 12.0399 8.50043 12.0399ZM8.50043 8.41992C7.92043 8.41992 7.44043 8.89992 7.44043 9.47992C7.44043 10.0599 7.92043 10.5399 8.50043 10.5399C9.08043 10.5399 9.56043 10.0599 9.56043 9.47992C9.56043 8.89992 9.08043 8.41992 8.50043 8.41992Z" fill="#292D32"/>
  <path d="M11.9999 17.0798C11.6199 17.0798 11.2899 16.7898 11.2499 16.3998C11.1399 15.3198 10.2699 14.4498 9.17991 14.3498C8.71991 14.3098 8.25991 14.3098 7.79991 14.3498C6.70991 14.4498 5.83991 15.3098 5.72991 16.3998C5.68991 16.8098 5.31991 17.1198 4.90991 17.0698C4.49991 17.0298 4.19991 16.6598 4.23991 16.2498C4.41991 14.4498 5.84991 13.0198 7.65991 12.8598C8.20991 12.8098 8.76991 12.8098 9.31991 12.8598C11.1199 13.0298 12.5599 14.4598 12.7399 16.2498C12.7799 16.6598 12.4799 17.0298 12.0699 17.0698C12.0499 17.0798 12.0199 17.0798 11.9999 17.0798Z" fill="#292D32"/>
</svg>

<svg viewBox="0 0 24 24" fill="none" xmlns="http://www.w3.org/2000/svg" height="1em" width="1em">
  <path d="M17 21.75H7c-4.41 0-5.75-1.34-5.75-5.75V8c0-4.41 1.34-5.75 5.75-5.75h10c4.41 0 5.75 1.34 5.75 5.75v8c0 4.41-1.34 5.75-5.75 5.75Zm-10-18c-3.58 0-4.25.68-4.25 4.25v8c0 3.57.67 4.25 4.25 4.25h10c3.58 0 4.25-.68 4.25-4.25V8c0-3.57-.67-4.25-4.25-4.25H7Z" fill="#292D32"/>
  <path d="M19 8.75h-5c-.41 0-.75-.34-.75-.75s.34-.75.75-.75h5c.41 0 .75.34.75.75s-.34.75-.75.75Zm0 4h-4c-.41 0-.75-.34-.75-.75s.34-.75.75-.75h4c.41 0 .75.34.75.75s-.34.75-.75.75Zm0 4h-2c-.41 0-.75-.34-.75-.75s.34-.75.75-.75h2c.41 0 .75.34.75.75s-.34.75-.75.75ZM8.5 12.04c-1.41 0-2.56-1.15-2.56-2.56 0-1.41 1.15-2.56 2.56-2.56 1.41 0 2.56 1.15 2.56 2.56 0 1.41-1.15 2.56-2.56 2.56Zm0-3.62c-.58 0-1.06.48-1.06 1.06 0 .58.48 1.06 1.06 1.06.58 0 1.06-.48 1.06-1.06 0-.58-.48-1.06-1.06-1.06Zm3.5 8.66c-.38 0-.71-.29-.75-.68a2.301 2.301 0 0 0-2.07-2.05 7.95 7.95 0 0 0-1.38 0c-1.09.1-1.96.96-2.07 2.05-.04.41-.41.72-.82.67a.75.75 0 0 1-.67-.82c.18-1.8 1.61-3.23 3.42-3.39.55-.05 1.11-.05 1.66 0 1.8.17 3.24 1.6 3.42 3.39a.75.75 0 0 1-.67.82c-.02.01-.05.01-.07.01Z" fill="#292D32"/>
</svg>
